data/icons/hicolor/scalable/apps/io.github.diegopvlk.Dosage.svg

<?xml version="1.0" encoding="UTF-8"?>
<svg height="128px" viewBox="0 0 128 128" width="128px" xmlns="http://www.w3.org/2000/svg" xmlns:xlink="http://www.w3.org/1999/xlink">
    <filter id="a" height="100%" width="100%" x="0%" y="0%">
        <feColorMatrix color-interpolation-filters="sRGB" values="0 0 0 0 1 0 0 0 0 1 0 0 0 0 1 0 0 0 1 0"/>
    </filter>
    <linearGradient id="b" gradientTransform="matrix(1.166666 0 0 1.145833 -10.453059 -207.801064)" gradientUnits="userSpaceOnUse" x1="15.816913" x2="111.81694" y1="236.335556" y2="236.335556">
        <stop offset="0.05" stop-color="#9fa6c2"/>
        <stop offset="0.5" stop-color="#d0d3dc"/>
        <stop offset="0.95" stop-color="#9fa6c2"/>
    </linearGradient>
    <mask id="c">
        <g filter="url(#a)">
            <rect fill-opacity="0.24" height="153.6" width="153.6" x="-12.8" y="-12.8"/>
        </g>
    </mask>
    <clipPath id="d">
        <rect height="152" width="192"/>
    </clipPath>
    <linearGradient id="e" gradientUnits="userSpaceOnUse">
        <stop offset="0" stop-color="#99a0c9"/>
        <stop offset="0.5" stop-color="#667dff" stop-opacity="0.698039"/>
        <stop offset="1" stop-color="#99a0c9"/>
    </linearGradient>
    <linearGradient id="f" x1="18.999994" x2="58.999981" xlink:href="#e" y1="36.9999325" y2="36.9999325"/>
    <linearGradient id="g" x1="68.999996" x2="108.999983" xlink:href="#e" y1="36.9999325" y2="36.9999325"/>
    <linearGradient id="h" x1="18.999994" x2="58.999981" xlink:href="#e" y1="88.9999315" y2="88.9999315"/>
    <linearGradient id="i" gradientUnits="userSpaceOnUse">
        <stop offset="0" stop-color="#ffffff"/>
        <stop offset="1" stop-color="#e2e7ff"/>
    </linearGradient>
    <linearGradient id="j" x1="39" x2="39" xlink:href="#i" y1="69" y2="105"/>
    <linearGradient id="k" x1="39" x2="39" xlink:href="#i" y1="17" y2="53"/>
    <linearGradient id="l" x1="89" x2="89" xlink:href="#i" y1="17" y2="53"/>
    <linearGradient id="m" x1="68.999996" x2="108.999983" xlink:href="#e" y1="88.9999315" y2="88.9999315"/>
    <linearGradient id="n" x1="89" x2="89" xlink:href="#i" y1="69" y2="105"/>
    <path d="m 18.769531 10 h 90.460938 c 5.949219 0 10.769531 4.820312 10.769531 10.769531 v 88.460938 c 0 5.949219 -4.820312 10.769531 -10.769531 10.769531 h -90.460938 c -5.949219 0 -10.769531 -4.820312 -10.769531 -10.769531 v -88.460938 c 0 -5.949219 4.820312 -10.769531 10.769531 -10.769531 z m 0 0" fill="#8892be" fill-rule="evenodd"/>
    <path d="m 18.769531 8 h 90.460938 c 5.949219 0 10.769531 4.820312 10.769531 10.769531 v 88.460938 c 0 5.949219 -4.820312 10.769531 -10.769531 10.769531 h -90.460938 c -5.949219 0 -10.769531 -4.820312 -10.769531 -10.769531 v -88.460938 c 0 -5.949219 4.820312 -10.769531 10.769531 -10.769531 z m 0 0" fill="url(#b)" fill-rule="evenodd"/>
    <g mask="url(#c)">
        <g clip-path="url(#d)" transform="matrix(1 0 0 1 -8 -16)">
            <path d="m 29.496094 24 l -13.496094 13.496094 v 1.414062 l 14.910156 -14.910156 z m 4.242187 0 l -17.738281 17.738281 v 1.414063 l 19.15625 -19.152344 z m 4.246094 0 l -21.984375 21.980469 v 1.414062 l 23.394531 -23.394531 z m 4.238281 0 l -26.222656 26.226562 v 1.410157 l 27.640625 -27.636719 z m 4.246094 0 l -30.46875 30.46875 v 1.414062 l 31.878906 -31.882812 z m 4.238281 0 l -34.707031 34.707031 v 1.417969 l 36.125 -36.125 z m 4.246094 0 l -38.953125 38.949219 v 1.414062 l 40.363281 -40.363281 z m 4.238281 0 l -43.191406 43.195312 v 1.414063 l 44.609375 -44.609375 z m 4.246094 0 l -47.4375 47.4375 v 1.414062 l 48.847656 -48.851562 z m 4.242188 0 l -51.679688 51.679688 v 1.414062 l 53.09375 -53.09375 z m 4.242187 0 l -55.921875 55.921875 v 1.414063 l 57.339844 -57.335938 z m 4.246094 0 l -60.167969 60.164062 v 1.417969 l 61.578125 -61.582031 z m 4.238281 0 l -64.40625 64.40625 v 1.417969 l 65.824219 -65.824219 z m 4.246094 0 l -68.652344 68.648438 v 1.414062 l 70.0625 -70.0625 z m 4.238281 0 l -72.890625 72.894531 v 1.410157 l 74.308594 -74.304688 z m 4.246094 0 l -77.136719 77.136719 v 1.414062 l 78.546875 -78.550781 z m 4.238281 0 l -81.375 81.378906 v 1.414063 l 82.792969 -82.792969 z m 4.246094 0 l -85.621094 85.621094 v 1.414062 l 87.035156 -87.035156 z m 4.242187 0 l -89.863281 89.863281 v 1.414063 l 91.28125 -91.277344 z m 4.242188 0 l -94.105469 94.105469 v 1.414062 l 95.519531 -95.519531 z m 4.246093 0 l -98.351562 98.351562 v 0.683594 c 0 0.234375 0.019531 0.460938 0.035156 0.695313 l 99.726563 -99.730469 z m -87.699218 0.015625 c -0.535156 0.015625 -1.058594 0.066406 -1.574219 0.15625 l -8.90625 8.90625 c -0.089844 0.515625 -0.140625 1.039063 -0.15625 1.570313 z m 91.835937 0.089844 l -102.035156 102.035156 c 0.101563 0.359375 0.222656 0.707031 0.363281 1.046875 l 102.859375 -102.855469 c -0.390625 -0.09375 -0.785156 -0.171875 -1.1875 -0.226562 z m 3.273438 0.96875 l -103.972657 103.96875 c 0.183594 0.285156 0.382813 0.558593 0.59375 0.820312 l 104.296876 -104.292969 c -0.296876 -0.179687 -0.605469 -0.34375 -0.917969 -0.496093 z m 2.550781 1.691406 l -104.542969 104.539063 c 0.253907 0.222656 0.515625 0.429687 0.789063 0.625 l 104.472656 -104.46875 c -0.230469 -0.242188 -0.472656 -0.472657 -0.71875 -0.695313 z m -104.945312 0.292969 c -0.105469 0.101562 -0.207032 0.203125 -0.308594 0.308594 z m 106.902343 1.992187 l -103.925781 103.921875 c 0.328125 0.152344 0.664062 0.289063 1.007812 0.410156 l 103.433594 -103.433593 c -0.160156 -0.308594 -0.332031 -0.609375 -0.515625 -0.898438 z m 1.3125 2.929688 l -101.933593 101.933593 c 0.433593 0.050782 0.871093 0.085938 1.316406 0.085938 h 0.011718 l 100.859376 -100.863281 c -0.066407 -0.390625 -0.148438 -0.777344 -0.253907 -1.15625 z m 0.417969 3.824219 l -98.195312 98.195312 h 1.414062 l 96.78125 -96.78125 z m 0 4.246093 l -93.953125 93.949219 h 1.414063 l 92.539062 -92.539062 z m 0 4.242188 l -89.710938 89.707031 h 1.414063 l 88.296875 -88.292969 z m 0 4.238281 l -85.46875 85.46875 h 1.417969 l 84.050781 -84.050781 z m 0 4.242188 l -81.222656 81.226562 h 1.410156 l 79.8125 -79.8125 z m 0 4.246093 l -76.984375 76.980469 h 1.417969 l 75.566406 -75.570312 z m 0 4.242188 l -72.738281 72.738281 h 1.410156 l 71.328125 -71.324219 z m 0 4.238281 l -68.496094 68.5 h 1.414063 l 67.082031 -67.082031 z m 0 4.242188 l -64.253906 64.257812 h 1.414062 l 62.839844 -62.84375 z m 0 4.246093 l -60.011719 60.011719 h 1.414063 l 58.597656 -58.59375 z m 0 4.242188 l -55.769531 55.769531 h 1.414062 l 54.355469 -54.355469 z m 0 4.246093 l -51.527344 51.523438 h 1.417969 l 50.109375 -50.113281 z m 0 4.242188 l -47.28125 47.28125 h 1.410156 l 45.871094 -45.867188 z m 0 4.238281 l -43.042969 43.042969 h 1.417969 l 41.625 -41.625 z m 0 4.242188 l -38.796875 38.800781 h 1.410156 l 37.386719 -37.386719 z m 0 4.246093 l -34.558594 34.554688 h 1.417969 l 33.140625 -33.144531 z m 0 4.242188 l -30.3125 30.3125 h 1.414062 l 28.898438 -28.898438 z m 0 4.242188 l -26.070312 26.070312 h 1.414062 l 24.65625 -24.65625 z m 0 4.246093 l -21.828125 21.824219 h 1.414063 l 20.414062 -20.414062 z m 0 4.242188 l -17.585938 17.582031 h 1.414063 l 16.171875 -16.167969 z m 0 4.238281 l -13.34375 13.34375 h 1.417969 l 11.925781 -11.925781 z m -0.199219 4.445312 l -8.699219 8.699219 c 0.691407 -0.132812 1.355469 -0.328125 1.992188 -0.582031 l 6.125 -6.125 c 0.253906 -0.636719 0.449219 -1.300781 0.582031 -1.992188 z m 0 0" fill="#ffffff"/>
        </g>
    </g>
    <g fill-rule="evenodd">
        <path d="m 59 37 c 0 11.046875 -8.953125 20 -20 20 s -20 -8.953125 -20 -20 s 8.953125 -20 20 -20 s 20 8.953125 20 20 z m 0 0" fill="url(#f)"/>
        <path d="m 109 37 c 0 11.046875 -8.953125 20 -20 20 s -20 -8.953125 -20 -20 s 8.953125 -20 20 -20 s 20 8.953125 20 20 z m 0 0" fill="url(#g)"/>
        <path d="m 59 89 c 0 11.046875 -8.953125 20 -20 20 s -20 -8.953125 -20 -20 s 8.953125 -20 20 -20 s 20 8.953125 20 20 z m 0 0" fill="url(#h)"/>
        <path d="m 57 87 c 0 9.941406 -8.058594 18 -18 18 s -18 -8.058594 -18 -18 s 8.058594 -18 18 -18 s 18 8.058594 18 18 z m 0 0" fill="url(#j)"/>
        <path d="m 57 35 c 0 9.941406 -8.058594 18 -18 18 s -18 -8.058594 -18 -18 s 8.058594 -18 18 -18 s 18 8.058594 18 18 z m 0 0" fill="url(#k)"/>
        <path d="m 107 35 c 0 9.941406 -8.058594 18 -18 18 s -18 -8.058594 -18 -18 s 8.058594 -18 18 -18 s 18 8.058594 18 18 z m 0 0" fill="url(#l)"/>
        <path d="m 109 89 c 0 11.046875 -8.953125 20 -20 20 s -20 -8.953125 -20 -20 s 8.953125 -20 20 -20 s 20 8.953125 20 20 z m 0 0" fill="url(#m)"/>
        <path d="m 107 87 c 0 9.941406 -8.058594 18 -18 18 s -18 -8.058594 -18 -18 s 8.058594 -18 18 -18 s 18 8.058594 18 18 z m 0 0" fill="url(#n)"/>
        <path d="m 79.457031 94.34375 l 16.886719 -16.886719 c 0.609375 -0.609375 1.59375 -0.609375 2.199219 0 c 0.609375 0.605469 0.609375 1.589844 0 2.199219 l -16.886719 16.886719 c -0.609375 0.609375 -1.59375 0.609375 -2.199219 0 c -0.609375 -0.605469 -0.609375 -1.589844 0 -2.199219 z m 0 0" fill="#9199d1"/>
        <path d="m 79.457031 42.34375 l 16.886719 -16.886719 c 0.609375 -0.609375 1.59375 -0.609375 2.199219 0 c 0.609375 0.605469 0.609375 1.589844 0 2.199219 l -16.886719 16.886719 c -0.609375 0.609375 -1.59375 0.609375 -2.199219 0 c -0.605469 -0.605469 -0.605469 -1.589844 0 -2.199219 z m 0 0" fill="#9199d1"/>
        <path d="m 29.457031 42.34375 l 16.886719 -16.886719 c 0.609375 -0.609375 1.59375 -0.609375 2.199219 0 c 0.609375 0.605469 0.609375 1.589844 0 2.199219 l -16.886719 16.886719 c -0.609375 0.609375 -1.59375 0.609375 -2.199219 0 c -0.605469 -0.605469 -0.605469 -1.589844 0 -2.199219 z m 0 0" fill="#9199d1"/>
        <path d="m 29.457031 94.34375 l 16.886719 -16.886719 c 0.609375 -0.605469 1.59375 -0.605469 2.199219 0 c 0.609375 0.605469 0.609375 1.589844 0 2.199219 l -16.886719 16.886719 c -0.609375 0.609375 -1.59375 0.609375 -2.199219 0 c -0.609375 -0.605469 -0.609375 -1.589844 0 -2.199219 z m 0 0" fill="#9199d1"/>
    </g>
</svg>

<svg xmlns="http://www.w3.org/2000/svg" xmlns:xlink="http://www.w3.org/1999/xlink" width="128" height="128"><filter id="a" width="100%" height="100%" x="0%" y="0%"><feColorMatrix color-interpolation-filters="sRGB" values="0 0 0 0 1 0 0 0 0 1 0 0 0 0 1 0 0 0 1 0"/></filter><linearGradient id="d" x1="15.817" x2="111.817" y1="236.336" y2="236.336" gradientTransform="matrix(1.16667 0 0 1.14583 -10.453 -207.801)" gradientUnits="userSpaceOnUse"><stop offset=".05" stop-color="#9fa6c2"/><stop offset=".5" stop-color="#d0d3dc"/><stop offset=".95" stop-color="#9fa6c2"/></linearGradient><mask id="f"><g filter="url(#a)"><path fill-opacity=".24" d="M-12.8-12.8h153.6v153.6H-12.8z"/></g></mask><clipPath id="g"><path d="M0 0h192v152H0z"/></clipPath><linearGradient id="b" gradientUnits="userSpaceOnUse"><stop offset="0" stop-color="#99a0c9"/><stop offset=".5" stop-color="#667dff" stop-opacity=".698"/><stop offset="1" stop-color="#99a0c9"/></linearGradient><linearGradient xlink:href="#b" id="h" x1="19" x2="59" y1="37" y2="37"/><linearGradient xlink:href="#b" id="j" x1="69" x2="109" y1="37" y2="37"/><linearGradient xlink:href="#b" id="k" x1="19" x2="59" y1="89" y2="89"/><linearGradient id="c" gradientUnits="userSpaceOnUse"><stop offset="0" stop-color="#fff"/><stop offset="1" stop-color="#e2e7ff"/></linearGradient><linearGradient xlink:href="#c" id="l" x1="39" x2="39" y1="69" y2="105"/><linearGradient xlink:href="#c" id="m" x1="39" x2="39" y1="17" y2="53"/><linearGradient xlink:href="#c" id="n" x1="89" x2="89" y1="17" y2="53"/><linearGradient xlink:href="#b" id="o" x1="69" x2="109" y1="89" y2="89"/><linearGradient xlink:href="#c" id="p" x1="89" x2="89" y1="69" y2="105"/><path fill="#8892be" fill-rule="evenodd" d="M18.77 10h90.46c5.95 0 10.77 4.82 10.77 10.77v88.46c0 5.95-4.82 10.77-10.77 10.77H18.77C12.82 120 8 115.18 8 109.23V20.77C8 14.82 12.82 10 18.77 10m0 0"/><path fill="url(#d)" fill-rule="evenodd" d="M18.77 8h90.46C115.18 8 120 12.82 120 18.77v88.46c0 5.95-4.82 10.77-10.77 10.77H18.77C12.82 118 8 113.18 8 107.23V18.77C8 12.82 12.82 8 18.77 8m0 0"/><g mask="url(#f)"><g clip-path="url(#g)" transform="translate(-8 -16)"><path fill="#fff" d="M29.496 24 16 37.496v1.414L30.91 24zm4.242 0L16 41.738v1.414L35.156 24zm4.246 0L16 45.98v1.415L39.395 24zm4.239 0L16 50.227v1.41L43.64 24zm4.246 0L16 54.469v1.414L47.879 24zm4.238 0L16 58.707v1.418L52.125 24zm4.246 0L16 62.95v1.413L56.363 24zm4.238 0L16 67.195v1.414L60.61 24zm4.246 0L16 71.438v1.414L64.848 24zm4.243 0L16 75.68v1.414L69.094 24zm4.242 0L16 79.922v1.414L73.34 24zm4.246 0L16 84.164v1.418L77.578 24zm4.238 0L16 88.406v1.418L81.824 24zm4.246 0L16 92.648v1.415L86.063 24zm4.239 0L16 96.895v1.41L90.309 24zm4.246 0L16 101.137v1.414L94.547 24zm4.238 0L16 105.379v1.414L98.793 24zm4.246 0L16 109.621v1.414L103.035 24zm4.242 0L16 113.863v1.414L107.281 24zm4.242 0L16 118.105v1.415L111.52 24zm4.247 0L16 122.352v.683c0 .235.02.461.035.695L115.762 24zm-87.7.016q-.801.022-1.574.156l-8.906 8.906q-.133.775-.156 1.57zm91.836.09L16.453 126.14q.153.538.363 1.046l102.86-102.855q-.584-.143-1.188-.227m3.274.968L17.789 129.043q.277.428.594.82L122.68 25.57c-.297-.18-.606-.343-.918-.496m2.55 1.692L19.77 131.305q.379.333.789.625L125.03 27.46q-.347-.361-.719-.694m-104.945.293q-.157.151-.308.308zM126.27 29.05 22.344 132.973q.492.228 1.008.41L126.785 29.949q-.24-.464-.515-.898m1.312 2.93L25.648 133.913c.434.05.872.086 1.317.086h.012L127.836 33.137c-.066-.39-.148-.778-.254-1.157m.418 3.824L29.805 134h1.414L128 37.219zm0 4.246L34.047 134h1.414L128 41.46zm0 4.242L38.29 134h1.413L128 45.707zm0 4.238L42.531 134h1.418L128 49.95zm0 4.242L46.777 134h1.41L128 54.188zm0 4.247L51.016 134h1.418L128 58.43zm0 4.242L55.262 134h1.41L128 62.676zm0 4.238L59.504 134h1.414L128 66.918zm0 4.242L63.746 134h1.414L128 71.156zm0 4.246L67.988 134h1.414L128 75.406zm0 4.242L72.23 134h1.415L128 79.645zm0 4.247L76.473 134h1.418L128 83.887zm0 4.242L80.719 134h1.41L128 88.133zm0 4.238L84.957 134h1.418L128 92.375zm0 4.242L89.203 134h1.41L128 96.613zm0 4.246L93.441 134h1.418L128 100.855zm0 4.243L97.688 134h1.414L128 105.102zm0 4.242L101.93 134h1.414L128 109.344zm0 4.246L106.172 134h1.414L128 113.586zm0 4.242L110.414 134h1.414L128 117.832zm0 4.238L114.656 134h1.418L128 122.074zm-.2 4.446-8.698 8.699a11 11 0 0 0 1.992-.582l6.125-6.125q.382-.956.582-1.992m0 0"/></g></g><g fill-rule="evenodd"><path fill="url(#h)" d="M59 37c0 11.047-8.953 20-20 20s-20-8.953-20-20 8.953-20 20-20 20 8.953 20 20m0 0"/><path fill="url(#j)" d="M109 37c0 11.047-8.953 20-20 20s-20-8.953-20-20 8.953-20 20-20 20 8.953 20 20m0 0"/><path fill="url(#k)" d="M59 89c0 11.047-8.953 20-20 20s-20-8.953-20-20 8.953-20 20-20 20 8.953 20 20m0 0"/><path fill="url(#l)" d="M57 87c0 9.941-8.059 18-18 18s-18-8.059-18-18 8.059-18 18-18 18 8.059 18 18m0 0"/><path fill="url(#m)" d="M57 35c0 9.941-8.059 18-18 18s-18-8.059-18-18 8.059-18 18-18 18 8.059 18 18m0 0"/><path fill="url(#n)" d="M107 35c0 9.941-8.059 18-18 18s-18-8.059-18-18 8.059-18 18-18 18 8.059 18 18m0 0"/><path fill="url(#o)" d="M109 89c0 11.047-8.953 20-20 20s-20-8.953-20-20 8.953-20 20-20 20 8.953 20 20m0 0"/><path fill="url(#p)" d="M107 87c0 9.941-8.059 18-18 18s-18-8.059-18-18 8.059-18 18-18 18 8.059 18 18m0 0"/><path fill="#9199d1" d="m79.457 94.344 16.887-16.887c.61-.61 1.594-.61 2.199 0 .61.606.61 1.59 0 2.2L81.656 96.542c-.61.61-1.594.61-2.199 0a1.55 1.55 0 0 1 0-2.2M79.457 42.344l16.887-16.887c.61-.61 1.594-.61 2.199 0 .61.605.61 1.59 0 2.2L81.656 44.542c-.61.61-1.594.61-2.199 0a1.56 1.56 0 0 1 0-2.2M29.457 42.344l16.887-16.887c.61-.61 1.593-.61 2.199 0 .61.605.61 1.59 0 2.2L31.656 44.542c-.61.61-1.593.61-2.199 0a1.56 1.56 0 0 1 0-2.2M29.457 94.344l16.887-16.887a1.56 1.56 0 0 1 2.199 0c.61.606.61 1.59 0 2.2L31.656 96.542c-.61.61-1.593.61-2.199 0a1.55 1.55 0 0 1 0-2.2m0 0"/></g></svg>
